applications/preferences-desktop-locale-symbolic.svg

<?xml version="1.0" encoding="UTF-8" standalone="no"?>
<!-- Created with Inkscape (http://www.inkscape.org/) -->

<svg
   xmlns:dc="http://purl.org/dc/elements/1.1/"
   xmlns:cc="http://creativecommons.org/ns#"
   xmlns:rdf="http://www.w3.org/1999/02/22-rdf-syntax-ns#"
   xmlns:svg="http://www.w3.org/2000/svg"
   xmlns="http://www.w3.org/2000/svg"
   xmlns:sodipodi="http://sodipodi.sourceforge.net/DTD/sodipodi-0.dtd"
   xmlns:inkscape="http://www.inkscape.org/namespaces/inkscape"
   width="16"
   height="16"
   id="svg4152"
   version="1.1"
   inkscape:version="0.92.2 5c3e80d, 2017-08-06"
   viewBox="0 0 16 16"
   sodipodi:docname="preferences-desktop-locale-symbolic.svg">
  <defs
     id="defs4154" />
  <sodipodi:namedview
     id="base"
     pagecolor="#ededed"
     bordercolor="#000000"
     borderopacity="0.49803922"
     inkscape:pageopacity="0"
     inkscape:pageshadow="2"
     inkscape:zoom="22.197802"
     inkscape:cx="4.8893002"
     inkscape:cy="8.1953011"
     inkscape:current-layer="layer1"
     showgrid="true"
     inkscape:grid-bbox="true"
     inkscape:document-units="px"
     inkscape:showpageshadow="false"
     borderlayer="true"
     inkscape:window-width="1920"
     inkscape:window-height="1012"
     inkscape:window-x="0"
     inkscape:window-y="32"
     inkscape:window-maximized="1">
    <inkscape:grid
       type="xygrid"
       id="grid4700"
       color="#000000"
       opacity="0.0627451"
       empcolor="#000000"
       empopacity="0.1254902"
       empspacing="4"
       spacingx="2"
       spacingy="2" />
  </sodipodi:namedview>
  <metadata
     id="metadata4157">
    <rdf:RDF>
      <cc:Work
         rdf:about="">
        <dc:format>image/svg+xml</dc:format>
        <dc:type
           rdf:resource="http://purl.org/dc/dcmitype/StillImage" />
        <dc:title />
      </cc:Work>
    </rdf:RDF>
  </metadata>
  <g
     id="layer1"
     inkscape:label="Layer 1"
     inkscape:groupmode="layer">
    <path
       style="color:#000000;font-style:normal;font-variant:normal;font-weight:normal;font-stretch:normal;font-size:medium;line-height:normal;font-family:sans-serif;font-variant-ligatures:normal;font-variant-position:normal;font-variant-caps:normal;font-variant-numeric:normal;font-variant-alternates:normal;font-feature-settings:normal;text-indent:0;text-align:start;text-decoration:none;text-decoration-line:none;text-decoration-style:solid;text-decoration-color:#000000;letter-spacing:normal;word-spacing:normal;text-transform:none;writing-mode:lr-tb;direction:ltr;text-orientation:mixed;dominant-baseline:auto;baseline-shift:baseline;text-anchor:start;white-space:normal;shape-padding:0;clip-rule:nonzero;display:inline;overflow:visible;visibility:visible;opacity:1;isolation:auto;mix-blend-mode:normal;color-interpolation:sRGB;color-interpolation-filters:linearRGB;solid-color:#000000;solid-opacity:1;vector-effect:none;fill:#000000;fill-opacity:1;fill-rule:evenodd;stroke:none;stroke-width:2;stroke-linecap:round;stroke-linejoin:round;stroke-miterlimit:4;stroke-dasharray:none;stroke-dashoffset:0;stroke-opacity:1;color-rendering:auto;image-rendering:auto;shape-rendering:auto;text-rendering:auto;enable-background:accumulate"
       d="M 8 0 C 3.5935666 0 0 3.5935666 0 8 C 0 12.406433 3.5935666 16 8 16 C 12.406433 16 16 12.406433 16 8 C 16 3.5935666 12.406433 0 8 0 z M 8 2 C 8.0989568 2 8.2355658 2.0354406 8.4648438 2.2617188 C 8.6941216 2.4879969 8.9679517 2.8946217 9.203125 3.4433594 C 9.584672 4.3336356 9.860344 5.5902359 9.9550781 7 L 6.0449219 7 C 6.139656 5.5902359 6.415328 4.3336356 6.796875 3.4433594 C 7.0320483 2.8946217 7.3058785 2.4879969 7.5351562 2.2617188 C 7.7644341 2.0354405 7.9010432 2 8 2 z M 4.8808594 2.8769531 C 4.4181361 4.0359829 4.1294883 5.4459995 4.0410156 7 L 2.0898438 7 C 2.3817409 5.2480576 3.4240046 3.7628636 4.8808594 2.8769531 z M 11.119141 2.8769531 C 12.575995 3.7628636 13.618259 5.2480576 13.910156 7 L 11.958984 7 C 11.870512 5.4459995 11.581863 4.0359829 11.119141 2.8769531 z M 2.0898438 9 L 4.0410156 9 C 4.1294883 10.554 4.4181361 11.964017 4.8808594 13.123047 C 3.4240046 12.237136 2.3817409 10.751942 2.0898438 9 z M 6.0449219 9 L 9.9550781 9 C 9.860344 10.409764 9.584672 11.666364 9.203125 12.556641 C 8.9679517 13.105378 8.6941216 13.512003 8.4648438 13.738281 C 8.2355658 13.964559 8.0989568 14 8 14 C 7.9010432 14 7.7644341 13.964559 7.5351562 13.738281 C 7.3058784 13.512003 7.0320483 13.105378 6.796875 12.556641 C 6.415328 11.666364 6.139656 10.409764 6.0449219 9 z M 11.958984 9 L 13.910156 9 C 13.618259 10.751942 12.575995 12.237136 11.119141 13.123047 C 11.581863 11.964017 11.870512 10.554 11.958984 9 z "
       id="path4174" />
  </g>
</svg>

<svg 
    xmlns="http://www.w3.org/2000/svg" width="16" height="16">
    <path fill-rule="evenodd" d="M8 0C3.594 0 0 3.594 0 8c0 4.406 3.594 8 8 8 4.406 0 8-3.594 8-8 0-4.406-3.594-8-8-8zm0 2c.099 0 .236.035.465.262.23.226.503.633.738 1.181.382.89.657 2.147.752 3.557h-3.91c.095-1.41.37-2.666.752-3.557.235-.548.509-.955.738-1.181C7.765 2.035 7.901 2 8 2zm-3.12.877C4.419 4.036 4.13 5.446 4.042 7H2.09a5.97 5.97 0 0 1 2.79-4.123zm6.24 0A5.97 5.97 0 0 1 13.91 7h-1.95c-.088-1.554-.377-2.964-.84-4.123zM2.09 9h1.95c.088 1.554.377 2.964.84 4.123A5.97 5.97 0 0 1 2.09 9zm3.955 0h3.91c-.095 1.41-.37 2.666-.752 3.557-.235.548-.509.955-.738 1.181-.23.227-.366.262-.465.262-.099 0-.236-.035-.465-.262-.23-.226-.503-.633-.738-1.181-.382-.89-.657-2.147-.752-3.557zm5.914 0h1.951a5.97 5.97 0 0 1-2.79 4.123c.462-1.159.75-2.569.839-4.123z"/>
</svg>
